proprietary/assets/icons/infrastructuur-en-transport/matrixbord-met-maximumsnelheid.svg

<svg height="64" viewBox="0 0 64 64" width="64" xmlns="http://www.w3.org/2000/svg"><path d="m0 0h64v64h-64z" fill="none"/><path d="m53 6h-42c-2.7614 0-5 2.2386-5 5v42c0 2.7614 2.2386 5 5 5h42c2.7614 0 5-2.2386 5-5v-42c0-2.7614-2.2386-5-5-5zm3 47c0 1.6543-1.3457 3-3 3h-42c-1.6543 0-3-1.3457-3-3v-42c0-1.6543 1.3457-3 3-3h42c1.6543 0 3 1.3457 3 3z"/><path d="m53 10h-42c-.5513 0-1 .4487-1 1v42c0 .5513.4487 1 1 1h42c.5513 0 1-.4487 1-1v-42c0-.5513-.4487-1-1-1zm-38 2c1.65 0 3 1.35 3 3s-1.35 3-3 3-3-1.35-3-3 1.35-3 3-3zm0 40c-1.65 0-3-1.35-3-3s1.35-3 3-3 3 1.35 3 3-1.35 3-3 3zm17-3c-9.3739 0-17-7.6261-17-17s7.6261-17 17-17 17 7.6261 17 17-7.6261 17-17 17zm17 3c-1.65 0-3-1.35-3-3s1.35-3 3-3 3 1.35 3 3-1.35 3-3 3zm0-34c-1.65 0-3-1.35-3-3s1.35-3 3-3 3 1.35 3 3-1.35 3-3 3z"/><path d="m27.658 33.36-1.2269-.731c-1.0132.6971-1.3865 1.275-1.3865 2.1247 0 .9011.7822 1.4963 2.0264 1.4963 1.1024 0 1.8668-.561 1.8668-1.3093-.0001-.561-.2666-.9859-1.2798-1.5807z"/><path d="m32 19c-7.1681 0-13 5.8319-13 13s5.8319 13 13 13 13-5.8319 13-13-5.8319-13-13-13zm-5.0931 19.2c-2.6138 0-4.1069-1.2697-4.1069-2.9803 0-1.233.6532-2.2264 2.3893-3.2199l-.5787-.4231c-.9894-.736-1.3255-1.4164-1.3255-2.5206 0-1.6372 1.6989-3.2561 3.7893-3.2561 2.3336 0 3.6776 1.2509 3.6776 2.9064 0 1.3615-.6159 2.2081-2.1281 3.0726l.7095.4047c1.4.7911 1.8665 1.5822 1.8665 2.778.0001 1.8768-1.7733 3.2383-4.293 3.2383zm9.9718 0c-2.2535 0-4.0787-1.3982-4.0787-6.0162 0-4.4891 1.9929-6.3838 4.2836-6.3838 2.2912 0 4.1164 1.6372 4.1164 6.108 0 4.3602-2.0859 6.292-4.3213 6.292z"/><path d="m36.9911 27.8c-.9755 0-1.756 1.1375-1.756 4.1649 0 3.2199.7092 4.2352 1.7383 4.2352 1.0463 0 1.7914-1.2252 1.7914-4.1125 0-3.2205-.7091-4.2876-1.7737-4.2876z"/><path d="m26.2888 30.5209 1.0846.714c.9245-.6462 1.3333-1.275 1.3333-2.0738 0-.8501-.6044-1.4111-1.6712-1.4111-.96 0-1.5998.5779-1.5998 1.3941 0 .6627.2132.9519.8531 1.3768z"/></svg>

<?xml version="1.0" encoding="utf-8"?>
<!-- Generator: Adobe Illustrator 19.1.0, SVG Export Plug-In . SVG Version: 6.00 Build 0)  -->
<svg version="1.2" baseProfile="tiny" xmlns="http://www.w3.org/2000/svg" xmlns:xlink="http://www.w3.org/1999/xlink" x="0px"
	 y="0px" width="64px" height="64px" viewBox="0 0 64 64" xml:space="preserve">
<g id="Box">
	<rect fill="none" width="64" height="64"/>
</g>
<g id="Icon">
	<g>
		<path d="M53,6H11c-2.7614,0-5,2.2386-5,5v42c0,2.7614,2.2386,5,5,5h42c2.7614,0,5-2.2386,5-5V11C58,8.2386,55.7614,6,53,6z M56,53
			c0,1.6543-1.3457,3-3,3H11c-1.6543,0-3-1.3457-3-3V11c0-1.6543,1.3457-3,3-3h42c1.6543,0,3,1.3457,3,3V53z"/>
		<path d="M53,10H11c-0.5513,0-1,0.4487-1,1v42c0,0.5513,0.4487,1,1,1h42c0.5513,0,1-0.4487,1-1V11C54,10.4487,53.5513,10,53,10z
			 M15,12c1.65,0,3,1.35,3,3s-1.35,3-3,3s-3-1.35-3-3S13.35,12,15,12z M15,52c-1.65,0-3-1.35-3-3s1.35-3,3-3s3,1.35,3,3
			S16.65,52,15,52z M32,49c-9.3739,0-17-7.6261-17-17s7.6261-17,17-17s17,7.6261,17,17S41.3739,49,32,49z M49,52c-1.65,0-3-1.35-3-3
			s1.35-3,3-3s3,1.35,3,3S50.65,52,49,52z M49,18c-1.65,0-3-1.35-3-3s1.35-3,3-3s3,1.35,3,3S50.65,18,49,18z"/>
		<path d="M27.658,33.36l-1.2269-0.731c-1.0132,0.6971-1.3865,1.275-1.3865,2.1247c0,0.9011,0.7822,1.4963,2.0264,1.4963
			c1.1024,0,1.8668-0.561,1.8668-1.3093C28.9377,34.3797,28.6712,33.9548,27.658,33.36z"/>
		<path d="M32,19c-7.1681,0-13,5.8319-13,13s5.8319,13,13,13s13-5.8319,13-13S39.1681,19,32,19z M26.9069,38.2
			c-2.6138,0-4.1069-1.2697-4.1069-2.9803c0-1.233,0.6532-2.2264,2.3893-3.2199l-0.5787-0.4231
			c-0.9894-0.736-1.3255-1.4164-1.3255-2.5206c0-1.6372,1.6989-3.2561,3.7893-3.2561c2.3336,0,3.6776,1.2509,3.6776,2.9064
			c0,1.3615-0.6159,2.2081-2.1281,3.0726l0.7095,0.4047c1.4,0.7911,1.8665,1.5822,1.8665,2.778
			C31.2,36.8385,29.4266,38.2,26.9069,38.2z M36.8787,38.2c-2.2535,0-4.0787-1.3982-4.0787-6.0162
			c0-4.4891,1.9929-6.3838,4.2836-6.3838c2.2912,0,4.1164,1.6372,4.1164,6.108C41.2,36.2682,39.1141,38.2,36.8787,38.2z"/>
		<path d="M36.9911,27.8c-0.9755,0-1.756,1.1375-1.756,4.1649c0,3.2199,0.7092,4.2352,1.7383,4.2352
			c1.0463,0,1.7914-1.2252,1.7914-4.1125C38.7648,28.8671,38.0557,27.8,36.9911,27.8z"/>
		<path d="M26.2888,30.5209l1.0846,0.714c0.9245-0.6462,1.3333-1.275,1.3333-2.0738c0-0.8501-0.6044-1.4111-1.6712-1.4111
			c-0.96,0-1.5998,0.5779-1.5998,1.3941C25.4357,29.8068,25.6489,30.096,26.2888,30.5209z"/>
	</g>
</g>
</svg>
